X: 10031
Q: "Slow"
M: 3/4
L: 1/8
K: D
(3(ABc) |\
d2 d>f {f}ed/c/ | d2 A2 (3DFA |\
d>c de/f/ e>d | (d2 c2) d>c |\
{c}B2 (Bc/d/) (e/d/c/B/) | A2 F>AdA |\
c/B/A/G/ F>D TE>D | D4 :|
|: A>G |\
d>c de/f/ e>d | {d2}c4 d>c |\
c/B/A/G/ F>D TE>D | D4 :|


